SVG_Azure_All/Mobility (MDM And MAM).svg

<?xml version="1.0" encoding="UTF-8" standalone="no"?>
<!-- Generated by Microsoft Visio, SVG Export Mobility (MDM And MAM).svg Page-1 -->

<svg
   xmlns:dc="http://purl.org/dc/elements/1.1/"
   xmlns:cc="http://creativecommons.org/ns#"
   xmlns:rdf="http://www.w3.org/1999/02/22-rdf-syntax-ns#"
   xmlns:svg="http://www.w3.org/2000/svg"
   xmlns="http://www.w3.org/2000/svg"
   xmlns:sodipodi="http://sodipodi.sourceforge.net/DTD/sodipodi-0.dtd"
   xmlns:inkscape="http://www.inkscape.org/namespaces/inkscape"
   width="0.74801028in"
   height="0.78737831in"
   viewBox="0 0 53.856691 56.6913"
   xml:space="preserve"
   class="st6"
   version="1.1"
   id="svg44"
   sodipodi:docname="Mobility (MDM And MAM).svg"
   style="font-size:12px;overflow:visible;color-interpolation-filters:sRGB;fill:none;fill-rule:evenodd;stroke-linecap:square;stroke-miterlimit:3"
   inkscape:version="0.92.5 (2060ec1f9f, 2020-04-08)"><metadata
   id="metadata50"><rdf:RDF><cc:Work
       rdf:about=""><dc:format>image/svg+xml</dc:format><dc:type
         rdf:resource="http://purl.org/dc/dcmitype/StillImage" /></cc:Work></rdf:RDF></metadata><defs
   id="defs48" /><sodipodi:namedview
   pagecolor="#ffffff"
   bordercolor="#666666"
   borderopacity="1"
   objecttolerance="10"
   gridtolerance="10"
   guidetolerance="10"
   inkscape:pageopacity="0"
   inkscape:pageshadow="2"
   inkscape:window-width="640"
   inkscape:window-height="480"
   id="namedview46"
   showgrid="false"
   inkscape:zoom="0.98831442"
   inkscape:cx="35.905294"
   inkscape:cy="37.791292"
   inkscape:window-x="0"
   inkscape:window-y="0"
   inkscape:window-maximized="0"
   inkscape:current-layer="svg44" />
	<style
   type="text/css"
   id="style2">
	<![CDATA[
		.st1 {fill:#57a300;stroke:none;stroke-linecap:butt;stroke-width:61.2}
		.st2 {fill:#59b4d9;stroke:none;stroke-linecap:butt;stroke-width:61.2}
		.st3 {fill:#804998;stroke:none;stroke-linecap:butt;stroke-width:61.2}
		.st4 {fill:#68217a;stroke:none;stroke-linecap:butt;stroke-width:61.2}
		.st5 {fill:#0072c6;stroke:none;stroke-linecap:butt;stroke-width:61.2}
		.st6 {fill:none;fill-rule:evenodd;font-size:12px;overflow:visible;stroke-linecap:square;stroke-miterlimit:3}
	]]>
	</style>

	<g
   id="g42"
   transform="translate(-61.200176,-61.1987)">
		<title
   id="title4">Page-1</title>
		<g
   id="group2992-1"
   transform="translate(61.2,-61.2)">
			<title
   id="title6">Mobility (MDM And MAM)</title>
			<g
   id="group2993-2">
				<title
   id="title8">g16</title>
				<g
   id="shape2994-3"
   transform="translate(21.5433,-39.5717)">
					<title
   id="title10">circle4</title>
					<ellipse
   cx="4.5836802"
   cy="174.55701"
   rx="4.5836802"
   ry="4.53543"
   class="st1"
   id="ellipse12"
   style="fill:#57a300;stroke:none;stroke-width:61.20000076;stroke-linecap:butt" />
				</g>
				<g
   id="shape2995-5"
   transform="translate(21.8871,-8.05039)">
					<title
   id="title15">circle6</title>
					<ellipse
   cx="4.5836802"
   cy="174.55701"
   rx="4.5836802"
   ry="4.53543"
   class="st1"
   id="ellipse17"
   style="fill:#57a300;stroke:none;stroke-width:61.20000076;stroke-linecap:butt" />
				</g>
				<g
   id="shape2996-7"
   transform="translate(0,-10.3181)">
					<title
   id="title20">path8</title>
					<path
   d="M 14.9,179.09 H 12.72 C 5.73,179.09 0,173.42 0,166.51 v -11 c 0.11,-6.58 5.73,-12.25 12.61,-12.59 h 3.43 c 1.15,0 2.07,0.91 2.07,2.04 0,1.14 -0.92,2.04 -2.07,2.04 h -3.32 c -4.58,0.23 -8.48,3.97 -8.48,8.4 v 10.99 c 0,4.65 3.78,8.39 8.48,8.39 h 2.18 c 1.14,0 2.06,0.91 2.06,2.05 0,1.36 -0.92,2.26 -2.06,2.26 z"
   class="st2"
   id="path22"
   inkscape:connector-curvature="0"
   style="fill:#59b4d9;stroke:none;stroke-width:61.20000076;stroke-linecap:butt" />
				</g>
				<g
   id="shape2997-9"
   transform="translate(34.6068,-10.3181)">
					<title
   id="title25">path10</title>
					<path
   d="M 6.53,179.09 H 2.06 A 2.0555,2.03386 0 0 1 0,177.05 c 0,-1.13 0.92,-2.04 2.06,-2.04 h 4.47 c 4.7,0 8.48,-3.74 8.48,-8.39 v -11 c 0,-4.65 -3.78,-8.39 -8.48,-8.39 H 3.21 a 2.0555,2.03386 0 0 1 -2.06,-2.04 c 0,-1.13 0.91,-2.04 2.06,-2.04 h 3.32 c 6.99,0 12.72,5.67 12.72,12.59 v 10.99 c 0,6.81 -5.73,12.36 -12.72,12.36 z"
   class="st3"
   id="path27"
   inkscape:connector-curvature="0"
   style="fill:#804998;stroke:none;stroke-width:61.20000076;stroke-linecap:butt" />
				</g>
				<g
   id="shape2998-11"
   transform="translate(16.3593,-31.5213)">
					<title
   id="title30">path12</title>
					<path
   d="m 9.54,179.09 c -3.21,0 -6.53,-1.24 -8.94,-3.63 a 2.1486,2.12598 0 0 1 0,-2.94 2.1486,2.12598 0 0 1 2.98,0 8.37238,8.28425 -180 0 0 11.92,0 8.37238,8.28425 -180 0 0 0,-11.8 8.52278,8.43307 -180 0 0 -5.96,-2.49 c -2.29,0 -4.36,0.91 -5.96,2.49 a 2.1486,2.12598 0 0 1 -2.98,0 2.1486,2.12598 0 0 1 0,-2.94 12.3401,12.2102 0 0 1 8.94,-3.86 c 3.44,0 6.53,1.36 8.94,3.63 a 12.7985,12.6638 0 0 1 0,17.8 12.2184,12.0898 0 0 1 -8.94,3.74 z"
   class="st4"
   id="path32"
   inkscape:connector-curvature="0"
   style="fill:#68217a;stroke:none;stroke-width:61.20000076;stroke-linecap:butt" />
				</g>
				<g
   id="shape2999-13"
   transform="translate(13.7235)">
					<title
   id="title35">path14</title>
					<path
   d="m 12.63,179.09 c -3.44,0 -6.53,-1.36 -8.94,-3.63 a 12.7985,12.6638 0 0 1 0,-17.8 12.5693,12.437 0 0 1 8.94,-3.63 c 3.44,0 6.53,1.37 8.94,3.63 a 2.1486,2.12598 0 0 1 0,2.95 2.1486,2.12598 0 0 1 -2.98,0 8.52278,8.43307 -180 0 0 -5.96,-2.49 c -2.29,0 -4.35,0.9 -5.96,2.49 a 8.37238,8.28425 -180 0 0 0,11.79 8.32225,8.23465 -180 0 0 11.92,0 2.1486,2.12598 0 0 1 2.98,0 2.1486,2.12598 0 0 1 0,2.95 c -2.29,2.38 -5.5,3.74 -8.94,3.74 z"
   class="st5"
   id="path37"
   inkscape:connector-curvature="0"
   style="fill:#0072c6;stroke:none;stroke-width:61.20000076;stroke-linecap:butt" />
				</g>
			</g>
		</g>
	</g>
</svg>

<?xml version="1.0" encoding="UTF-8" standalone="no"?>
<!DOCTYPE svg PUBLIC "-//W3C//DTD SVG 1.1//EN" "http://www.w3.org/Graphics/SVG/1.1/DTD/svg11.dtd">
<!-- Generated by Microsoft Visio, SVG Export Mobility (MDM And MAM).svg Page-1 -->
<svg xmlns="http://www.w3.org/2000/svg" xmlns:xlink="http://www.w3.org/1999/xlink" xmlns:ev="http://www.w3.org/2001/xml-events"
		width="2.44803in" height="2.4874in" viewBox="0 0 176.258 179.093" xml:space="preserve" color-interpolation-filters="sRGB"
		class="st6">
	<style type="text/css">
	<![CDATA[
		.st1 {fill:#57a300;stroke:none;stroke-linecap:butt;stroke-width:61.2}
		.st2 {fill:#59b4d9;stroke:none;stroke-linecap:butt;stroke-width:61.2}
		.st3 {fill:#804998;stroke:none;stroke-linecap:butt;stroke-width:61.2}
		.st4 {fill:#68217a;stroke:none;stroke-linecap:butt;stroke-width:61.2}
		.st5 {fill:#0072c6;stroke:none;stroke-linecap:butt;stroke-width:61.2}
		.st6 {fill:none;fill-rule:evenodd;font-size:12px;overflow:visible;stroke-linecap:square;stroke-miterlimit:3}
	]]>
	</style>

	<g>
		<title>Page-1</title>
		<g id="group2966-1" transform="translate(61.2,-61.2)">
			<title>Mobility (MDM And MAM)</title>
			<g id="group2967-2">
				<title>g16</title>
				<g id="shape2968-3" transform="translate(21.5433,-39.5717)">
					<title>circle4</title>
					<ellipse cx="4.58368" cy="174.557" rx="4.58368" ry="4.53543" class="st1"/>
				</g>
				<g id="shape2969-5" transform="translate(21.8871,-8.05039)">
					<title>circle6</title>
					<ellipse cx="4.58368" cy="174.557" rx="4.58368" ry="4.53543" class="st1"/>
				</g>
				<g id="shape2970-7" transform="translate(0,-10.3181)">
					<title>path8</title>
					<path d="M14.9 179.09 L12.72 179.09 C5.73 179.09 0 173.42 0 166.51 L0 155.51 C0.11 148.93 5.73 143.26 12.61 142.92
								 L16.04 142.92 C17.19 142.92 18.11 143.83 18.11 144.96 C18.11 146.1 17.19 147 16.04 147 L12.72 147
								 C8.14 147.23 4.24 150.97 4.24 155.4 L4.24 166.39 C4.24 171.04 8.02 174.78 12.72 174.78 L14.9 174.78
								 C16.04 174.78 16.96 175.69 16.96 176.83 C16.96 178.19 16.04 179.09 14.9 179.09 Z" class="st2"/>
				</g>
				<g id="shape2971-9" transform="translate(34.6068,-10.3181)">
					<title>path10</title>
					<path d="M6.53 179.09 L2.06 179.09 A2.0555 2.03386 0 0 1 -0 177.05 C0 175.92 0.92 175.01 2.06 175.01 L6.53 175.01
								 C11.23 175.01 15.01 171.27 15.01 166.62 L15.01 155.62 C15.01 150.97 11.23 147.23 6.53 147.23 L3.21
								 147.23 A2.0555 2.03386 0 0 1 1.15 145.19 C1.15 144.06 2.06 143.15 3.21 143.15 L6.53 143.15 C13.52
								 143.15 19.25 148.82 19.25 155.74 L19.25 166.73 C19.25 173.54 13.52 179.09 6.53 179.09 Z"
							class="st3"/>
				</g>
				<g id="shape2972-11" transform="translate(16.3593,-31.5213)">
					<title>path12</title>
					<path d="M9.54 179.09 C6.33 179.09 3.01 177.85 0.6 175.46 A2.1486 2.12598 0 0 1 0.6 172.52 A2.1486 2.12598 0
								 0 1 3.58 172.52 A8.37238 8.28425 -180 0 0 15.5 172.52 A8.37238 8.28425 -180 0 0 15.5 160.72 A8.52278
								 8.43307 -180 0 0 9.54 158.23 C7.25 158.23 5.18 159.14 3.58 160.72 A2.1486 2.12598 0 0 1 0.6 160.72
								 A2.1486 2.12598 0 0 1 0.6 157.78 A12.3401 12.2102 0 0 1 9.54 153.92 C12.98 153.92 16.07 155.28 18.48
								 157.55 A12.7985 12.6638 0 0 1 18.48 175.35 A12.2184 12.0898 0 0 1 9.54 179.09 Z" class="st4"/>
				</g>
				<g id="shape2973-13" transform="translate(13.7235,0)">
					<title>path14</title>
					<path d="M12.63 179.09 C9.19 179.09 6.1 177.73 3.69 175.46 A12.7985 12.6638 0 0 1 3.69 157.66 A12.5693 12.437
								 0 0 1 12.63 154.03 C16.07 154.03 19.16 155.4 21.57 157.66 A2.1486 2.12598 0 0 1 21.57 160.61 A2.1486
								 2.12598 0 0 1 18.59 160.61 A8.52278 8.43307 -180 0 0 12.63 158.12 C10.34 158.12 8.28 159.02 6.67
								 160.61 A8.37238 8.28425 -180 0 0 6.67 172.4 A8.32225 8.23465 -180 0 0 18.59 172.4 A2.1486 2.12598
								 0 0 1 21.57 172.4 A2.1486 2.12598 0 0 1 21.57 175.35 C19.28 177.73 16.07 179.09 12.63 179.09 Z"
							class="st5"/>
				</g>
			</g>
		</g>
	</g>
</svg>
